src/icons/disk.svg

<svg xmlns="http://www.w3.org/2000/svg"  viewBox="0 0 50 50" width="32px" height="32px"><path d="M 7.6875 0 C 6.777344 0 5.964844 0.6875 5.8125 1.59375 L 0.625 32.25 C 1.050781 32.09375 1.519531 32 2 32 L 48 32 C 48.46875 32 48.894531 32.101563 49.3125 32.25 L 44.1875 1.59375 C 44.035156 0.683594 43.226563 0 42.3125 0 Z M 25 8 C 32.726563 8 39 12.476563 39 18 C 39 23.519531 32.726563 28 25 28 C 17.273438 28 11 23.519531 11 18 C 11 12.476563 17.273438 8 25 8 Z M 25 15 C 23.34375 15 22 15.894531 22 17 C 22 18.105469 23.34375 19 25 19 C 26.65625 19 28 18.105469 28 17 C 28 15.894531 26.65625 15 25 15 Z M 2 34 C 0.898438 34 0 34.898438 0 36 L 0 48 C 0 49.101563 0.898438 50 2 50 L 48 50 C 49.101563 50 50 49.101563 50 48 L 50 36 C 50 34.898438 49.101563 34 48 34 Z M 40 40 C 41.105469 40 42 40.894531 42 42 C 42 43.105469 41.105469 44 40 44 C 38.894531 44 38 43.105469 38 42 C 38 40.894531 38.894531 40 40 40 Z"/></svg>

<svg role="img" viewBox="0 0 50 50" xmlns="http://www.w3.org/2000/svg"><path d="M7.688 0a1.93 1.93 0 0 0-1.875 1.594L.625 32.25A4.02 4.02 0 0 1 2 32h46c.469 0 .895.102 1.313.25L44.187 1.594A1.923 1.923 0 0 0 42.314 0ZM25 8c7.727 0 14 4.477 14 10 0 5.52-6.273 10-14 10s-14-4.48-14-10c0-5.523 6.273-10 14-10m0 7c-1.656 0-3 .895-3 2s1.344 2 3 2 3-.895 3-2-1.344-2-3-2M2 34c-1.102 0-2 .898-2 2v12c0 1.102.898 2 2 2h46c1.102 0 2-.898 2-2V36c0-1.102-.898-2-2-2Zm38 6a1.999 1.999 0 1 1 0 4 1.999 1.999 0 1 1 0-4"/></svg>
